X: 12795
T: Fear No Darkness
R: slip jig
M: 9/8
K: Dmajor
c|:dAd eAe fdd|gdg fdf edd|b3 a2g fga|agf fed efe:|
|:dAA AFA BAF|ABA ABd efd|fdd def ede|efd cde e2c:|

